public/big-icons/Github.svg

<?xml version="1.0" encoding="UTF-8"?>
<svg width="36px" height="36px" viewBox="0 0 36 36" version="1.1" xmlns="http://www.w3.org/2000/svg" xmlns:xlink="http://www.w3.org/1999/xlink">
    <title>C1F3637B-4107-4945-B01E-9BC8B7FAC6FA</title>
    <defs>
        <polygon id="path-1" points="0 0.0609293663 35.549489 0.0609293663 35.549489 34.7326823 0 34.7326823"></polygon>
    </defs>
    <g id="Final" stroke="none" stroke-width="1" fill="none" fill-rule="evenodd">
        <g id="01_Dekk/Login" transform="translate(-1019.000000, -704.000000)">
            <g id="Group-3" transform="translate(482.000000, 167.000000)">
                <g id="-g-Group-18" transform="translate(537.000000, 537.000000)">
                    <g id="Group-3" transform="translate(0.000000, 0.233415)">
                        <mask id="mask-2" fill="white">
                            <use xlink:href="#path-1"></use>
                        </mask>
                        <g id="Clip-2"></g>
                        <path d="M17.7748328,0.0608116284 C7.95931792,0.0608116284 -5.8868953e-05,8.01842235 -5.8868953e-05,17.8357033 C-5.8868953e-05,25.6888216 5.0929886,32.3516097 12.1554969,34.7019527 C13.0438294,34.8664914 13.3699634,34.316361 13.3699634,33.8468811 C13.3699634,33.423319 13.3534801,32.0228266 13.3458271,30.5375629 C8.40083507,31.6128044 7.35738288,28.4403565 7.35738288,28.4403565 C6.54881781,26.3861244 5.38380123,25.8395261 5.38380123,25.8395261 C3.77108626,24.736322 5.50536561,24.7589865 5.50536561,24.7589865 C7.29027227,24.8843774 8.2301151,26.5909883 8.2301151,26.5909883 C9.81545601,29.3080849 12.3883236,28.5224787 13.4026357,28.0683047 C13.5621705,26.9197714 14.0228201,26.1353426 14.5311535,25.6914707 C10.5831072,25.2423006 6.43284597,23.7178891 6.43284597,16.9070456 C6.43284597,14.9667249 7.12720527,13.3807953 8.2642591,12.1360113 C8.07970493,11.6883129 7.4712943,9.88044733 8.43645078,7.43208758 C8.43645078,7.43208758 9.92936743,6.95466037 13.3258117,9.25437602 C14.7436704,8.86054272 16.2642555,8.66303738 17.7748328,8.65597311 C19.2854101,8.66303738 20.8071726,8.86054272 22.2276804,9.25437602 C25.6202982,6.95466037 27.11086,7.43208758 27.11086,7.43208758 C28.0783713,9.88044733 27.4699607,11.6883129 27.2854065,12.1360113 C28.4251094,13.3807953 29.1144649,14.9667249 29.1144649,16.9070456 C29.1144649,23.7343724 24.9562564,25.2372968 20.9982023,25.6773422 C21.6357531,26.2289443 22.2038385,27.3106613 22.2038385,28.9689997 C22.2038385,31.3473054 22.1835287,33.2614294 22.1835287,33.8468811 C22.1835287,34.3201875 22.5031871,34.8741444 23.4041764,34.6998923 C30.4628582,32.3469002 35.5497245,25.6864669 35.5497245,17.8357033 C35.5497245,8.01842235 27.5915251,0.0608116284 17.7748328,0.0608116284" id="Fill-1" fill="#221E1B" mask="url(#mask-2)"></path>
                    </g>
                    <path d="M6.7322829,25.8148306 C6.69313504,25.9034284 6.55420432,25.9299194 6.42763607,25.8692844 C6.29841871,25.8110041 6.22630425,25.6906171 6.2681012,25.6020194 C6.30636602,25.5113612 6.44529675,25.4860475 6.57421976,25.5466825 C6.70314277,25.6046685 6.77672896,25.7262328 6.7322829,25.8148306" id="Fill-4" fill="#221E1B"></path>
                    <path d="M7.4523385,26.6179797 C7.3675672,26.6965698 7.20155676,26.660071 7.0894114,26.5358576 C6.97285087,26.4119384 6.95136371,26.245928 7.03731238,26.1664549 C7.12473277,26.0878648 7.28544501,26.1246579 7.4017112,26.2485771 C7.51827172,26.3739679 7.54093627,26.5382123 7.4523385,26.6179797" id="Fill-6" fill="#221E1B"></path>
                    <path d="M8.15314395,27.6415637 C8.04423638,27.7175046 7.86586346,27.6465675 7.75577851,27.48821 C7.64687095,27.3301469 7.64687095,27.1405889 7.75842762,27.0646479 C7.86851256,26.988707 8.04423638,27.0572893 8.15579305,27.2138807 C8.26440627,27.374593 8.26440627,27.564151 8.15314395,27.6415637" id="Fill-8" fill="#221E1B"></path>
                    <path d="M9.11320827,28.6306798 C9.01578015,28.7381156 8.80826709,28.7092699 8.65638519,28.5626862 C8.50097116,28.4193403 8.45770248,28.215948 8.55513059,28.1085122 C8.65403043,28.000782 8.86272087,28.0310995 9.01578015,28.1765058 C9.17001681,28.3195574 9.21711197,28.5244213 9.11320827,28.6306798" id="Fill-10" fill="#221E1B"></path>
                    <path d="M10.4377597,29.2049759 C10.3947854,29.344201 10.1949253,29.4071907 9.99359346,29.3480274 C9.79255598,29.2870981 9.66098387,29.1243254 9.70160345,28.9836286 C9.74340041,28.8432262 9.94414354,28.7775873 10.1469471,28.8408714 C10.3476902,28.9015064 10.4795567,29.063396 10.4377597,29.2049759" id="Fill-12" fill="#221E1B"></path>
                    <path d="M11.8925293,29.3113521 C11.8975331,29.4579358 11.7268132,29.5795002 11.5154736,29.5821493 C11.3029567,29.5871531 11.130765,29.4682378 11.1284103,29.3240089 C11.1284103,29.1759535 11.2955981,29.0558608 11.5078207,29.0520343 C11.7191602,29.0479135 11.8925293,29.1659458 11.8925293,29.3113521" id="Fill-14" fill="#221E1B"></path>
                    <path d="M13.2461031,29.0810862 C13.2714168,29.2238434 13.1245387,29.3707214 12.9146709,29.4098693 C12.7083352,29.4478397 12.5173055,29.359242 12.4911088,29.2176621 C12.4655008,29.0710784 12.6147336,28.9242004 12.8210693,28.8862299 C13.0312314,28.8497312 13.2193177,28.9356799 13.2461031,29.0810862" id="Fill-16" fill="#221E1B"></path>
                </g>
            </g>
        </g>
    </g>
</svg>

<svg xmlns="http://www.w3.org/2000/svg" xmlns:xlink="http://www.w3.org/1999/xlink" width="36" height="36" viewBox="0 0 36 36"><defs/><defs><path id="a" d="M0 .061h35.549v34.672H0z"/></defs><g fill="none" fill-rule="evenodd"><g transform="translate(0 .233)"><mask id="b" fill="#fff"><use xlink:href="#a"/></mask><path fill="#fff" d="M17.775.06C7.959.06 0 8.019 0 17.837c0 7.853 5.093 14.516 12.155 16.866.889.164 1.215-.386 1.215-.855 0-.424-.017-1.824-.024-3.31C8.4 31.614 7.357 28.44 7.357 28.44c-.808-2.054-1.973-2.6-1.973-2.6-1.613-1.104.121-1.081.121-1.081 1.785.125 2.725 1.832 2.725 1.832 1.585 2.717 4.158 1.931 5.173 1.477.16-1.148.62-1.933 1.128-2.377-3.948-.449-8.098-1.973-8.098-8.784 0-1.94.694-3.526 1.831-4.771-.184-.448-.793-2.256.172-4.704 0 0 1.493-.477 4.89 1.822a17.05 17.05 0 014.449-.598c1.51.007 3.032.205 4.453.598 3.392-2.3 4.883-1.822 4.883-1.822.967 2.448.359 4.256.174 4.704 1.14 1.245 1.83 2.83 1.83 4.771 0 6.827-4.159 8.33-8.117 8.77.638.552 1.206 1.634 1.206 3.292 0 2.378-.02 4.292-.02 4.878 0 .473.32 1.027 1.22.853 7.059-2.353 12.146-9.014 12.146-16.864C35.55 8.018 27.592.06 17.775.06" mask="url(#b)"/></g><path fill="#221E1B" d="M6.732 25.815c-.039.088-.178.115-.304.054-.13-.058-.202-.178-.16-.267.038-.09.177-.116.306-.055.13.058.203.18.158.268M7.452 26.618c-.084.079-.25.042-.363-.082-.116-.124-.138-.29-.052-.37.088-.078.248-.041.365.083.116.125.139.29.05.369M8.153 27.642c-.109.076-.287.005-.397-.154-.11-.158-.11-.347.002-.423.11-.076.286-.008.398.149.108.16.108.35-.003.428M9.113 28.63c-.097.108-.305.08-.457-.067-.155-.144-.198-.347-.1-.454.098-.108.307-.078.46.068.154.143.201.347.097.454M10.438 29.205c-.043.14-.243.202-.444.143-.201-.06-.333-.224-.292-.364.041-.14.242-.206.445-.143.2.06.333.222.29.364M11.893 29.311c.005.147-.166.269-.378.271-.212.005-.384-.114-.387-.258 0-.148.168-.268.38-.272.211-.004.385.114.385.26M13.246 29.081c.025.143-.121.29-.331.329-.207.038-.398-.05-.424-.192-.025-.147.124-.294.33-.332.21-.036.398.05.425.195"/></g></svg>
